X: 505
T: Shuoyang xiaodiao
%%abc-version 2.0
%%abcx-abcm2ps-target-version 5.9.1 (29 Sep 2008)
%%abc-creator hum2abc beta
%%abcx-conversion-date 2013/10/02 07:52:30
%%abc-edited-by Helmut Schaffrath
%%humdrum-veritas 2761823366
%%humdrum-veritas-data 58750957
%%continueall 1
%%barnumbers 0
L: 1/8
M: 2/4
K: A
c> f e c [I:setbarnb 1]| 
eB2c | 
e> d c B | 
eB3 | 
c> f e c | 
B2e B | 
A G B c/ G/ | 
F4 | 
B c/ B/F2 | 
B cF2 | 
e> d c B | 
e A B F | 
E4 | 
eB2e | 
c B A G/ F/ | 
BE2F/ E/ | 
DF2C | 
B,4 | 
eB2e | 
c B G F | 
B4 | 
E3F/ E/ | 
DF2C | 
B,4 |]  



